pix_core/e/new_document.svg

<!DOCTYPE svg PUBLIC "-//W3C//DTD SVG 1.1//EN" "http://www.w3.org/Graphics/SVG/1.1/DTD/svg11.dtd" [
	<!ENTITY ns_flows "http://ns.adobe.com/Flows/1.0/">
]><svg xmlns="http://www.w3.org/2000/svg" width="16" height="16" viewBox="-1 0 16 16" preserveAspectRatio="xMinYMid meet" overflow="visible" enable-background="new -1 0 16 16"><path d="M13.7 4.1c.2.4.3.8.3 1.1v9.5c0 .3-.1.6-.4.9-.2.2-.5.4-.9.4h-11.5c-.3 0-.6-.1-.9-.4-.2-.2-.3-.5-.3-.9v-13.5c0-.3.1-.6.4-.9s.5-.3.8-.3h7.5c.3 0 .7.1 1.1.3.4.2.8.4 1 .6l2.2 2.2c.4.3.6.6.7 1zm-.7 1.1c0-.1 0-.2 0-.2h-4v-4c-.1 0-.2 0-.2 0h-7.6c-.1 0-.2.1-.2.2v13.5c0 .2.1.3.2.3h11.5c.2 0 .2-.1.2-.3v-9.5zm-2.8-3.6c-.1 0-.1-.1-.2-.2v2.6h2.6c-.1-.1-.1-.1-.2-.2l-2.2-2.2z" fill="#999"/></svg>

<!DOCTYPE svg PUBLIC "-//W3C//DTD SVG 1.1//EN" "http://www.w3.org/Graphics/SVG/1.1/DTD/svg11.dtd" [
	<!ENTITY ns_flows "http://ns.adobe.com/Flows/1.0/">
]><svg xmlns="http://www.w3.org/2000/svg" width="16" height="16" viewBox="-1 0 16 16" preserveAspectRatio="xMinYMid meet" overflow="visible"><path d="M13.7 4.1c.2.4.3.8.3 1.1v9.5c0 .3-.1.6-.4.9-.2.2-.5.4-.9.4H1.2c-.3 0-.6-.1-.9-.4-.2-.2-.3-.5-.3-.9V1.2C0 .9.1.6.4.3s.5-.3.8-.3h7.5c.3 0 .7.1 1.1.3.4.2.8.4 1 .6L13 3.1c.4.3.6.6.7 1zM13 5.2V5H9V1H1.2c-.1 0-.2.1-.2.2v13.5c0 .2.1.3.2.3h11.5c.2 0 .2-.1.2-.3V5.2zm-2.8-3.6c-.1 0-.1-.1-.2-.2V4h2.6l-.2-.2-2.2-2.2z" fill="#999"/></svg>
